web/packages/design/src/ResourceIcon/assets/grubhub.svg

<svg width="72" height="72" viewBox="0 0 72 72" fill="none" xmlns="http://www.w3.org/2000/svg">
<g clip-path="url(#clip0_15942_7464)">
<path d="M61.8458 21.6036C61.7097 21.4339 61.6051 21.2239 61.5856 21.0022C60.9303 13.6497 59.8831 8.77365 59.8831 8.77365C59.7184 7.93183 58.9916 7.31271 58.1579 7.21331L52.2873 6.50315C52.2365 6.49697 52.1848 6.49354 52.1321 6.49354C51.4474 6.49354 50.8921 7.04884 50.8921 7.7339V9.77336C50.8915 9.81425 50.858 9.84708 50.8171 9.84708C50.7986 9.84708 50.7815 9.84027 50.7682 9.82912C47.2521 6.66236 43.2934 3.58847 38.9076 0.88068C38.0729 0.322893 37.0815 0.000488281 36.0022 0.000488281L35.9994 0.000798293C34.9201 0.000798293 33.9284 0.322893 33.0937 0.88068C12.8271 13.3929 1.67164 33.7331 1.24108 34.8502C1.1184 35.1101 1.0498 35.4003 1.0498 35.7068C1.0498 36.6453 1.69378 37.4335 2.56413 37.6537L8.40237 38.7773C9.18219 38.991 9.77301 39.6618 9.86142 40.482C9.90906 41.513 11.0123 64.5345 12.3984 70.5061C12.6253 71.3663 13.4106 72.0005 14.342 72.0005H14.386C17.7919 71.9153 20.9119 71.8587 24.2806 71.8135H24.2707L24.302 71.8129C24.3881 71.8118 24.4742 71.8106 24.5609 71.8095C24.9208 71.8095 25.2126 71.5144 25.2126 71.1541C25.2126 71.1489 25.2126 71.1432 25.2122 71.1375C25.0756 69.1273 24.7811 64.5311 24.5426 59.6918C24.5368 59.5705 24.5271 59.4179 24.5213 59.2949C24.4992 58.874 24.2676 58.5074 23.9282 58.301C22.1765 57.2527 20.9757 55.3783 20.8642 53.2163C20.5579 45.1424 20.4024 35.8122 20.8444 28.5111C20.8797 27.9035 21.3783 27.4166 21.9968 27.4057C22.6454 27.3946 23.1802 27.9112 23.1917 28.5597C23.1923 28.5907 23.1917 28.6213 23.1899 28.6517C22.9018 33.5185 22.8758 39.2723 22.9811 44.9492C22.9944 45.7163 23.6275 46.328 24.3949 46.3147C25.1621 46.3011 25.7734 45.6681 25.7601 44.9006C25.6548 39.1852 25.683 33.3942 25.9788 28.5111C26.0138 27.9035 26.5124 27.4166 27.1309 27.4057C27.7794 27.3946 28.3146 27.9112 28.3257 28.5597C28.3264 28.5907 28.3257 28.6213 28.3239 28.6517C28.0374 33.4927 28.0104 39.2118 28.1136 44.8597C28.1136 44.8606 28.1136 44.8619 28.1136 44.8631C28.1288 45.6281 28.7606 46.2367 29.5259 46.2234C30.2896 46.21 30.8985 45.5826 30.8901 44.8201C30.7864 39.1307 30.8161 33.3714 31.11 28.5111C31.1454 27.9035 31.644 27.4166 32.2625 27.4057C32.911 27.3946 33.4459 27.9112 33.4573 28.5597C33.4579 28.5907 33.4573 28.6213 33.4554 28.6517C33.0355 35.7493 33.1727 44.7333 33.4617 52.6142C33.4617 52.6192 33.4641 52.6829 33.4641 52.6879C33.4654 52.7279 33.4663 52.7678 33.4669 52.8078C33.4669 52.8081 33.4669 52.8081 33.4669 52.8084C33.4672 52.8341 33.4672 52.8601 33.4672 52.8861C33.4672 55.0414 32.3857 56.9442 30.7359 58.0814C30.4417 58.2855 30.2425 58.6132 30.2165 58.9947C30.2165 58.9947 30.0716 60.2048 30.607 66.0695C30.8564 68.6298 31.0468 70.4038 31.1348 71.2061C31.1698 71.5104 31.4278 71.746 31.7412 71.746C31.9236 71.7454 32.1064 71.7449 32.2931 71.7443H32.2854C33.4099 71.7397 34.5701 71.7374 35.7755 71.7368H36.0007H36.2261C37.7496 71.7374 39.2012 71.7408 40.6001 71.7477L43.9119 71.7769C43.9131 71.7769 43.9143 71.7769 43.9156 71.7769C44.2308 71.7769 44.4888 71.5384 44.5343 71.2307C45.3012 64.2028 45.4814 60.2562 45.4814 60.2562C45.4814 59.9011 45.2101 59.6346 44.854 59.5797L40.8312 59.025C40.195 58.9129 39.8172 58.5211 39.6812 58.039C39.5979 57.7468 39.6308 57.418 39.6308 57.418C41.2617 33.9932 48.9849 26.099 48.9849 26.099C49.2128 25.8668 49.3596 25.7754 49.3596 25.7754C49.5635 25.6274 49.8146 25.5397 50.0859 25.5397C50.6096 25.5397 51.0575 25.8662 51.2381 26.3261C51.2381 26.3261 51.3015 26.4893 51.3377 26.8891C52.0043 34.2525 51.679 46.7824 51.2665 56.5574C50.9165 64.8542 50.4932 71.3663 50.4932 71.3663C50.4929 71.3708 50.4929 71.3754 50.4929 71.3794C50.4929 71.6459 50.7091 71.8621 50.9757 71.8621C53.1681 71.8987 55.3272 71.9439 57.6153 72.0005H57.6592C58.5907 72.0005 59.3764 71.3663 59.6029 70.5061C60.9892 64.5345 62.0923 41.513 62.1404 40.482C62.2284 39.6618 62.8192 38.991 63.5993 38.7773L69.4371 37.6537C70.3075 37.4335 70.9514 36.6453 70.9514 35.7068C70.9514 35.4003 70.8828 35.1101 70.7604 34.8502C70.5397 34.2772 67.4955 28.6437 61.8458 21.6036Z" fill="#FF8000"/>
</g>
<defs>
<clipPath id="clip0_15942_7464">
<rect width="72" height="72" fill="white" transform="translate(0 0.000488281)"/>
</clipPath>
</defs>
</svg>

<svg xmlns="http://www.w3.org/2000/svg" width="72" height="72" fill="none" viewBox="0 0 72 72"><g clip-path="url(#a)"><path fill="#ff8000" d="M61.846 21.604c-.136-.17-.24-.38-.26-.602-.656-7.352-1.703-12.228-1.703-12.228-.165-.842-.891-1.461-1.725-1.56l-5.87-.71a1.24 1.24 0 0 0-1.395 1.23v2.04a.075.075 0 0 1-.125.055c-3.516-3.167-7.475-6.24-11.86-8.948A5.2 5.2 0 0 0 36.002 0H36a5.2 5.2 0 0 0-2.905.88C12.827 13.393 1.672 33.733 1.24 34.85a2.01 2.01 0 0 0 1.323 2.803l5.838 1.123a2 2 0 0 1 1.46 1.705c.047 1.031 1.15 24.052 2.536 30.024A2.01 2.01 0 0 0 14.341 72h.044a810 810 0 0 1 9.895-.187h-.01l.031-.001.259-.004c.36 0 .652-.295.652-.655v-.016a656 656 0 0 1-.67-11.446l-.022-.397a1.24 1.24 0 0 0-.593-.994 6.3 6.3 0 0 1-3.064-5.085c-.306-8.074-.462-17.404-.02-24.705a1.175 1.175 0 1 1 2.346.14c-.288 4.868-.314 10.621-.209 16.298a1.39 1.39 0 0 0 2.78-.048c-.106-5.716-.078-11.507.218-16.39a1.175 1.175 0 1 1 2.345.14c-.287 4.842-.314 10.56-.21 16.209v.003a1.388 1.388 0 0 0 2.776-.043c-.104-5.69-.074-11.449.22-16.309a1.175 1.175 0 1 1 2.345.14c-.42 7.098-.282 16.082.007 23.963l.002.074.003.12v.078a6.3 6.3 0 0 1-2.731 5.195 1.2 1.2 0 0 0-.52.914s-.144 1.21.391 7.075c.25 2.56.44 4.334.528 5.136a.61.61 0 0 0 .606.54l.552-.002h-.008a973 973 0 0 1 3.49-.007h.451c1.524 0 2.975.004 4.374.01l3.312.03h.004a.63.63 0 0 0 .618-.546c.767-7.028.947-10.975.947-10.975 0-.355-.27-.621-.627-.676l-4.023-.555c-.636-.112-1.014-.504-1.15-.986-.083-.292-.05-.621-.05-.621 1.63-23.425 9.354-31.319 9.354-31.319.228-.232.375-.324.375-.324a1.24 1.24 0 0 1 1.879.55c0 .001.063.164.099.564.666 7.363.341 19.893-.072 29.668-.35 8.297-.773 14.81-.773 14.81v.012c0 .267.216.483.483.483 2.192.037 4.351.082 6.64.139h.043a2.01 2.01 0 0 0 1.944-1.495c1.386-5.972 2.49-28.993 2.537-30.024a2 2 0 0 1 1.46-1.705l5.837-1.123a2.01 2.01 0 0 0 1.323-2.804c-.22-.573-3.264-6.206-8.914-13.246"/></g><defs><clipPath id="a"><path fill="#fff" d="M0 0h72v72H0z"/></clipPath></defs></svg>
